X:7
T:The Nightengale
R:jig
C:Sean Ryan
O:20th century Ireland
D:An Historic Recording of Irish Music
B:The Hidden Ireland, Sean Ryan
Z:Paul Stewart Cranford (P.S.C.), <http://www.cranfordpub.com>
H:                              copyrights Brian Ryan
L:1/8
Q:333
M:6/8
K:Ador
G|EAA A2 B|cAB cAG|EDE GFG|G,B,D GFG|
EAG A2B|cAB cde|(3(fga)f gfe|dBG A2:|
|:a|{b}aea {b}aef|gdg gdg|aea {b}aef|gfe de[1g|
aea {b}aef|gdg gdg|{a}gfg (3(efg)e|dBG A2:|
[2f|g2 e fed|edB ABd|{a}gfg (3(efg)e|dBG A2:|
